icons/themes/default/square-check.svg

<svg viewBox="0 0 20 20" fill="none" xmlns="http://www.w3.org/2000/svg">
<path d="M9.05946 12.1094L8.67056 12.4983L9.05946 12.8872L9.44837 12.4983L9.05946 12.1094ZM13.6671 8.27954L14.056 7.89064L13.2782 7.11282L12.8893 7.50173L13.6671 8.27954ZM7.57337 9.84548L7.18446 9.45657L6.40665 10.2344L6.79556 10.6233L7.57337 9.84548ZM16.95 4.5V15.5H18.05V4.5H16.95ZM15.5 16.95H4.5V18.05H15.5V16.95ZM3.05 15.5V4.5H1.95V15.5H3.05ZM4.5 3.05H15.5V1.95H4.5V3.05ZM9.44837 12.4983L13.6671 8.27954L12.8893 7.50173L8.67056 11.7205L9.44837 12.4983ZM6.79556 10.6233L8.67056 12.4983L9.44837 11.7205L7.57337 9.84548L6.79556 10.6233ZM3.05 4.5C3.05 3.69919 3.69919 3.05 4.5 3.05V1.95C3.09167 1.95 1.95 3.09167 1.95 4.5H3.05ZM4.5 16.95C3.69919 16.95 3.05 16.3008 3.05 15.5H1.95C1.95 16.9083 3.09167 18.05 4.5 18.05V16.95ZM16.95 15.5C16.95 16.3008 16.3008 16.95 15.5 16.95V18.05C16.9083 18.05 18.05 16.9083 18.05 15.5H16.95ZM18.05 4.5C18.05 3.09167 16.9083 1.95 15.5 1.95V3.05C16.3008 3.05 16.95 3.69919 16.95 4.5H18.05Z" fill="currentColor"/>
</svg>

<svg xmlns="http://www.w3.org/2000/svg" fill="none" viewBox="0 0 20 20">
  <path fill="currentColor" d="m9.06 12.11-.39.388.39.39.388-.39-.389-.389Zm4.607-3.83.389-.39-.778-.777-.389.389.778.778ZM7.573 9.845l-.389-.388-.777.777.389.39.777-.779ZM16.95 4.5v11h1.1v-11h-1.1ZM15.5 16.95h-11v1.1h11v-1.1ZM3.05 15.5v-11h-1.1v11h1.1ZM4.5 3.05h11v-1.1h-11v1.1Zm4.948 9.448 4.22-4.218-.779-.778-4.218 4.218.777.778Zm-2.652-1.875 1.875 1.875.777-.777-1.875-1.876-.777.778ZM3.05 4.5c0-.8.65-1.45 1.45-1.45v-1.1A2.55 2.55 0 0 0 1.95 4.5h1.1ZM4.5 16.95c-.8 0-1.45-.65-1.45-1.45h-1.1a2.55 2.55 0 0 0 2.55 2.55v-1.1Zm12.45-1.45c0 .8-.65 1.45-1.45 1.45v1.1a2.55 2.55 0 0 0 2.55-2.55h-1.1Zm1.1-11a2.55 2.55 0 0 0-2.55-2.55v1.1c.8 0 1.45.65 1.45 1.45h1.1Z"/>
</svg>
